svg/fluentui-system-icons/ic_fluent_briefcase_off_48_regular.svg

<svg width="48" height="48" viewBox="0 0 48 48" fill="none" xmlns="http://www.w3.org/2000/svg">
<path d="M42 33.75C42 34.8076 41.7373 35.8039 41.2736 36.6771L39.3611 34.7647C39.4516 34.4419 39.5 34.1016 39.5 33.75V26.7505C38.4554 27.5351 37.157 28 35.75 28H32.5964L30.0964 25.5H35.75C37.8211 25.5 39.5 23.8211 39.5 21.75V18.25C39.5 16.1789 37.8211 14.5 35.75 14.5H19.0964L16 11.4036V8.25C16 5.90279 17.9028 4 20.25 4H27.75C30.0972 4 32 5.90279 32 8.25V12H35.75C39.2018 12 42 14.7982 42 18.25V33.75ZM21.3427 23.1105C20.561 23.3824 20 24.1257 20 25V25.5H12.25C10.1789 25.5 8.5 23.8211 8.5 21.75V18.25C8.5 16.1789 10.1789 14.5 12.25 14.5H12.7322L21.3427 23.1105ZM10.4849 12.2527C7.89265 13.0144 6 15.4112 6 18.25V33.75C6 37.2018 8.79822 40 12.25 40H35.75C36.4924 40 37.2046 39.8706 37.8652 39.633L41.8661 43.6339C42.3543 44.122 43.1457 44.122 43.6339 43.6339C44.122 43.1457 44.122 42.3543 43.6339 41.8661L6.13388 4.36612C5.64573 3.87796 4.85427 3.87796 4.36612 4.36612C3.87796 4.85427 3.87796 5.64573 4.36612 6.13388L10.4849 12.2527ZM35.7322 37.5H12.25C10.1789 37.5 8.5 35.8211 8.5 33.75V26.7505C9.54458 27.5351 10.843 28 12.25 28H20V29C20 30.1046 20.8954 31 22 31H26C26.8743 31 27.6176 30.439 27.8895 29.6573L35.7322 37.5ZM18.5 8.25V12H29.5V8.25C29.5 7.2835 28.7165 6.5 27.75 6.5H20.25C19.2835 6.5 18.5 7.2835 18.5 8.25Z" fill="#212121"/>
</svg>

<svg xmlns="http://www.w3.org/2000/svg" width="48" height="48"><path d="M42 33.75a6.223 6.223 0 0 1-.726 2.927l-1.913-1.912c.09-.323.139-.663.139-1.015v-7A6.222 6.222 0 0 1 35.75 28h-3.154l-2.5-2.5h5.654a3.75 3.75 0 0 0 3.75-3.75v-3.5a3.75 3.75 0 0 0-3.75-3.75H19.096L16 11.404V8.25A4.25 4.25 0 0 1 20.25 4h7.5A4.25 4.25 0 0 1 32 8.25V12h3.75A6.25 6.25 0 0 1 42 18.25v15.5ZM21.343 23.11A2 2 0 0 0 20 25v.5h-7.75a3.75 3.75 0 0 1-3.75-3.75v-3.5a3.75 3.75 0 0 1 3.75-3.75h.482l8.61 8.61ZM10.485 12.253A6.253 6.253 0 0 0 6 18.25v15.5A6.25 6.25 0 0 0 12.25 40h23.5a6.25 6.25 0 0 0 2.115-.367l4.001 4a1.25 1.25 0 0 0 1.768-1.767l-37.5-37.5a1.25 1.25 0 1 0-1.768 1.768l6.119 6.119ZM35.732 37.5H12.25a3.75 3.75 0 0 1-3.75-3.75v-7A6.222 6.222 0 0 0 12.25 28H20v1a2 2 0 0 0 2 2h4a2 2 0 0 0 1.89-1.343l7.842 7.843ZM18.5 8.25V12h11V8.25a1.75 1.75 0 0 0-1.75-1.75h-7.5a1.75 1.75 0 0 0-1.75 1.75Z"/></svg>
